X:6469
T:the ?Braes? of Acklebie?
O:england
R:Reel
M:C|
A:Westmorland
N:P2 1/2
K:C
C2CD EGGA|cded cAGc|\
A/2A/2A A<G A2a2|ecge d2c2|\
+c2C2+ CD EGGA|c<d e>d cAGc|\
AcGc FcEc|d/2c/2B +cF++gE+ +f2D2+ C2::\
efga gece|afdf edcG|\
A/2A/2A A2 agab|ecge d2c2|\
efga gece|afdf e+Bd+cG|\
AcGc FcEc|d/2c/2B cE D2C2:|


